spark-frontend/src/assets/tokens/usdc.svg

<svg width="24" height="24" viewBox="0 0 24 24" fill="none" xmlns="http://www.w3.org/2000/svg">
    <g clip-path="url(#clip0_14_5329)">
        <rect width="24" height="24" fill="#5998E2"/>
        <path d="M14.5074 13.3296C14.5074 11.9999 13.7096 11.544 12.1139 11.3541C10.9742 11.2021 10.7462 10.8982 10.7462 10.3662C10.7462 9.83427 11.1262 9.49243 11.886 9.49243C12.5698 9.49243 12.9498 9.72038 13.1397 10.2903C13.1777 10.4042 13.2917 10.4802 13.4057 10.4802H14.0135C14.1655 10.4802 14.2795 10.3662 14.2795 10.2143V10.1763C14.1275 9.34043 13.4436 8.69459 12.5698 8.61864V7.70683C12.5698 7.55483 12.4558 7.44085 12.2659 7.40283H11.696C11.544 7.40283 11.4301 7.51681 11.392 7.70683V8.58062C10.2523 8.73262 9.53048 9.49243 9.53048 10.4423C9.53048 11.696 10.2903 12.1898 11.886 12.3799C12.9498 12.5698 13.2917 12.7977 13.2917 13.4056C13.2917 14.0136 12.7598 14.4314 12.038 14.4314C11.0501 14.4314 10.7082 14.0135 10.5942 13.4436C10.5563 13.2917 10.4423 13.2156 10.3283 13.2156H9.68239C9.53048 13.2156 9.4165 13.3296 9.4165 13.4816V13.5196C9.56841 14.4694 10.1763 15.1532 11.4301 15.3432V16.2551C11.4301 16.407 11.544 16.5209 11.734 16.559H12.3038C12.4558 16.559 12.5698 16.445 12.6078 16.2551V15.3432C13.7476 15.1532 14.5074 14.3554 14.5074 13.3296V13.3296Z"
              fill="#ffffff"/>
        <path d="M10.0624 17.3187C7.09897 16.255 5.57926 12.9497 6.68109 10.0242C7.25097 8.42857 8.50471 7.21285 10.0624 6.64296C10.2144 6.56701 10.2903 6.45303 10.2903 6.26301V5.73115C10.2903 5.57915 10.2144 5.46518 10.0624 5.42725C10.0243 5.42725 9.94839 5.42725 9.91036 5.46518C6.30114 6.60494 4.32551 10.4422 5.46528 14.0514C6.14914 16.179 7.78283 17.8127 9.91036 18.4965C10.0624 18.5725 10.2144 18.4965 10.2523 18.3445C10.2903 18.3066 10.2903 18.2686 10.2903 18.1926V17.6607C10.2903 17.5467 10.1763 17.3948 10.0624 17.3187ZM14.0896 5.46518C13.9376 5.38922 13.7856 5.46518 13.7476 5.61718C13.7096 5.6552 13.7096 5.69313 13.7096 5.76918V6.30103C13.7096 6.45303 13.8236 6.60494 13.9376 6.68099C16.901 7.74471 18.4207 11.05 17.3188 13.9755C16.749 15.5711 15.4952 16.7869 13.9376 17.3567C13.7856 17.4327 13.7096 17.5467 13.7096 17.7367V18.2686C13.7096 18.4206 13.7856 18.5345 13.9376 18.5725C13.9756 18.5725 14.0515 18.5725 14.0896 18.5345C17.6988 17.3948 19.6744 13.5575 18.5347 9.94828C17.8508 7.78273 16.1791 6.14904 14.0896 5.46518V5.46518Z"
              fill="#ffffff"/>
    </g>
    <defs>
        <clipPath id="clip0_14_5329">
            <rect width="24" height="24" rx="12" fill="white"/>
        </clipPath>
    </defs>
</svg>

<svg xmlns="http://www.w3.org/2000/svg" width="24" height="24" fill="none"><g clip-path="url(#a)"><path fill="#5998E2" d="M0 0h24v24H0z"/><path fill="#fff" d="M14.507 13.33c0-1.33-.797-1.786-2.393-1.976-1.14-.152-1.368-.456-1.368-.988s.38-.874 1.14-.874c.684 0 1.064.228 1.254.798.038.114.152.19.266.19h.607a.26.26 0 0 0 .267-.266v-.038a1.9 1.9 0 0 0-1.71-1.557v-.912c0-.152-.114-.266-.304-.304h-.57c-.152 0-.266.114-.304.304v.874c-1.14.152-1.862.911-1.862 1.861 0 1.254.76 1.748 2.356 1.938 1.064.19 1.406.418 1.406 1.026s-.532 1.025-1.254 1.025c-.988 0-1.33-.417-1.444-.987-.038-.152-.152-.228-.266-.228h-.646a.26.26 0 0 0-.266.266v.038c.152.95.76 1.633 2.014 1.823v.912c0 .152.114.266.304.304h.57c.152 0 .266-.114.304-.304v-.912c1.14-.19 1.9-.988 1.9-2.013"/><path fill="#fff" d="M10.062 17.319c-2.963-1.064-4.483-4.37-3.38-7.295a5.62 5.62 0 0 1 3.38-3.381c.152-.076.228-.19.228-.38v-.532c0-.152-.076-.266-.228-.304-.038 0-.114 0-.152.038-3.609 1.14-5.584 4.977-4.445 8.586a6.83 6.83 0 0 0 4.445 4.446c.152.076.304 0 .342-.152.038-.038.038-.076.038-.152v-.532c0-.114-.114-.266-.228-.342M14.09 5.465c-.152-.076-.304 0-.342.152-.038.038-.038.076-.038.152v.532c0 .152.114.304.228.38 2.963 1.064 4.483 4.369 3.38 7.295a5.62 5.62 0 0 1-3.38 3.38c-.152.077-.228.19-.228.38v.533c0 .152.076.266.228.304.038 0 .114 0 .152-.038 3.609-1.14 5.584-4.978 4.445-8.587a6.89 6.89 0 0 0-4.445-4.483"/></g><defs><clipPath id="a"><rect width="24" height="24" fill="#fff" rx="12"/></clipPath></defs></svg>
